app/style/icons/max-fee.svg

<svg viewBox="0 0 400 400" xmlns="http://www.w3.org/2000/svg"><path d="m187.5 25c-103.55 0-187.5 83.95-187.5 187.5s83.95 187.5 187.5 187.5 187.5-83.95 187.5-187.5h-187.5z" fill="#8795a2"/><g fill="#18173f"><path d="m50.9 225.72h25.89l14.84 39.28 5.24 15.42h.58l5.24-15.42 14.26-39.28h25.89v94.56h-23.28v-27.93c0-9.6 2-24.29 3.2-33.75h-.58l-7.86 22.11-13.09 31.86h-9.31l-13.09-31.86-7.56-22.11h-.58c1.16 9.46 3.2 24.15 3.2 33.75v27.93h-23z"/><path d="m208.16 300.2h-26.48l-4.68 20.08h-25.6l28.8-94.56h30.26l28.8 94.56h-26.45zm-4.51-19.35-1.6-6.55c-2.33-9-4.66-20.51-7-30h-.58c-2 9.6-4.36 20.95-6.69 30l-1.6 6.55z"/><path d="m269.34 271.69-24.15-46h27.93l6.4 15.42c2 4.36 4.07 9.6 6.69 15.71h.58c2-6.11 4.07-11.35 5.82-15.71l5.53-15.42h26.77l-24.15 47.13 25.6 47.42h-27.92l-7.56-16.87c-2.33-4.95-4.36-9.89-6.69-15.71h-.58c-2 5.82-4.07 10.77-6.11 15.71l-7 16.87h-26.76z"/><path d="m400 176.74c0-.56 0-1.13 0-1.69a175 175 0 0 0 -175-175.05v176.74z"/></g></svg>

<svg xmlns="http://www.w3.org/2000/svg" viewBox="0 0 400 400"><defs><style>.cls-1{fill:#8795a2;}.cls-2{fill:#18173f;}</style></defs><title>max-fee</title><g id="Layer_2" data-name="Layer 2"><g id="design"><path class="cls-1" d="M187.5,25C83.95,25,0,108.95,0,212.5S83.95,400,187.5,400,375,316.05,375,212.5H187.5Z"/><path class="cls-2" d="M50.9,225.72H76.79L91.63,265l5.24,15.42h.58L102.69,265l14.26-39.28h25.89v94.56H119.56V292.35c0-9.6,2-24.29,3.2-33.75h-.58l-7.86,22.11-13.09,31.86H91.92L78.83,280.71,71.27,258.6h-.58c1.16,9.46,3.2,24.15,3.2,33.75v27.93h-23Z"/><path class="cls-2" d="M208.16,300.2H181.68L177,320.28h-25.6l28.8-94.56h30.26l28.8,94.56H212.81Zm-4.51-19.35-1.6-6.55c-2.33-9-4.66-20.51-7-30h-.58c-2,9.6-4.36,20.95-6.69,30l-1.6,6.55Z"/><path class="cls-2" d="M269.34,271.69l-24.15-46h27.93l6.4,15.42c2,4.36,4.07,9.6,6.69,15.71h.58c2-6.11,4.07-11.35,5.82-15.71l5.53-15.42h26.77l-24.15,47.13,25.6,47.42H298.44l-7.56-16.87c-2.33-4.95-4.36-9.89-6.69-15.71h-.58c-2,5.82-4.07,10.77-6.11,15.71l-7,16.87H243.74Z"/><path class="cls-2" d="M400,176.74c0-.56,0-1.13,0-1.69A175,175,0,0,0,225,0V176.74Z"/></g></g></svg>
